X:1
T:Thrush in the morning, The
M:4/4
L:1/8
K:D
   fag | f2ef d2AF | AdAF Adfe | dAAF DFF2 | ABdf e2fe |
       | dAAF dAAF | BAFA dADE | EDFA defa | afef d   :|
|: ABc | dcde faaf | g3e  fgfe | dcde faaf | gafg eAce |
       | dcde faa2 | bfaf efdB | BAFA defa | afef d   :|
|: ABc | dAAF BAFA | D3F  AFF2 | dFFE F2BF | ABdf e2fe |
       | dAAF dAAF | BAFA dADE | EDFA defa | afef d   :|
